X: 12953
T: Fiddler's Joy
R: barndance
M: 4/4
K: Dmajor
[M:12/8]
|:d2f a3 d2a fed|c3 A2c e2f gfe|d2f a3 d2a fed|cBA gfe d3 d2A:|
d2e f2d f<a2 f2d|g2B e2d cBA ABc|d2e f2d f<a2 d2f|cBA gfe d3 d2A|
d2e f2d f<a2 f2d|g2B e2d cBA efg|agf gfe fed efg|cBA gfe d3 d2A|

